X: 1
T: Lenas födelsedagsvisa
M: 2/4
L: 1/8
Q: 1/4=140
R: humppa
K: Am
|EF|"Am" E2A,B,|CCEF|"E7"E2 B,C|DDEF|
w: Låt gal-osch-er-na nöt-a, trott-o-a-ren den blö-ta. Låt pam-
|E2 B,C|D2 EF|"Am"E4|z2 A_B|
w: push-er-na klaf-sa i rad.
|"A7" A2 EF|GG A_B|A
